X: 383
T: Unas Lock
%R: hornpipe, reel
Z: 2014 John Chambers <jc:trillian.mit.edu>
B: Preston "Twenty four Country Dances for the Year 1800" p.172 #1
F: http://www.vwml.org/browse/browse-collections-dance-tune-books/browse-prestons1800# 2014-8-10
M: C|
L: 1/8
K: Gm
|:\
d>cB>A G2G>D | G>AB>c d>cB>c |\
d>cB>A G2G>D | Ggg^f g2G2 :|\
g2d>^f g2d>^f | gbag fed=e |
f2c>=e f2c>=e | fgag fddf |\
gfg=e fefd | g>ba>g f_edc |\
B>BB>B A2AB | G>gg>^f g2G2 |]
% - - - - - - - - - - - - - - - - - - - - - - - - -
%%begintext align
%% Right hands across .| Left hands back
%% again :| lead down the middle up again
%% and cast off :|:
%%endtext
% - - - - - - - - - - - - - - - - - - - - - - - - -

%%sep 1 1 500
%%sep 1 1 500
